X:12
T:Steam Packet Hornpipe,3parts. JNu.12
T:Steamboat,The,aka. JNu.12
M:4/4
L:1/8
Q:1/2=90
S:James Nuttall MS,c1830?,Rossendale,East Lancs.
R:.Hornpipe
O:England
A:East Lancashire
Z:vmp.Manchester Morris Men
V:1
V:2
V:3 clef=bass
K:G
[V:1] |: d2 | g2 bg d2 gd | B2 dB G2 GG | FGAB cdcd | c2 B2 B2 d2 |
[V:2] |: B2 | d2gdB2dB | G2G2D2G2 | A2G2F2F2 | A2G2G2B2 |
[V:3] |: z2 | G,2G,G,G,2G,G, | G,2G,2G,2G,2 | D,2D,D,D,2D,2 | G,2G,2G,2z2 |
%
[V:1] g2 bg d2 gd | B2 dB G2 B2 | cdec BcAB | G2 G2 G2 😐
[V:2] d2gdB2dB | G2G2B,2B,2 | C2C2B,2DC | B,2B,2B,2 😐
[V:3] G,2z2G,2z2 | G,2z2G,2z2 | C,2C,2D,2D,2 | G,,2G,,2G,,2 😐
%
[V:1] |: Bc | d^cd^c dBGB | =cBcB cAFA | GABc defg | agfe dcBA |
[V:2] |: z2 |.D2.D2.D2.D2 | .C2.C2.C2.C2 | D2D2D2D2 | F2F2F2F2 |
[V:3] |: z2 |G,2G,2G,2G,2 | E,2E,2E,2E,2 | G,2G,2G,2G,2 | D,2D,2D,2D,2 |
%
[V:1] d^cd^c dBGB | =cBcB cAFA | GABc BcAF | G2 G2 G2 😐
[V:2] .D2.D2.D2.D2 | E2E2E2E2 |E4D4 | B,2B,2B,2 😐
[V:3] G,2G,2G,2G,2 | C,2C,2C,2C,2 |G,2B,,C,D,2D,2 | G,,2G,,2G,,2 😐

